X: 1
T: Butcher's Fancy, The
M: 6/8
L: 1/8
R: jig
K: Gmaj
B|:ded BAB|dBA A2B|ded BAB|dBA G2B|
ded BAB|dBA A2g|faf g2e|1dBA G2B:|2dBA GBd||
|:eAA fAA|e3 Acd|eAA g2e|dBA GBd|
eAA fAA|e2A efg|faf g2e|1dBA GBd:|2dBA GAB||
